data/yomogi.svg

<svg width="42" height="20.272" viewBox="0 0 42 20.272" xmlns="http://www.w3.org/2000/svg"><path transform="translate(0 16.24) scale(.014 -.014)" d="m458 684q-60-180-193-396l1-247q-3-33-23-31-19 0-19 31v251q-138 227-191 388-8 30 14 39 20 9 29-18 47-151 166-350 119 181 173 354 11 27 32 21 21-9 11-42z"/><path transform="translate(7 16.24) scale(.014 -.014)" d="m272 479q58 2 104-36 48-37 69-108 22-70 4-152-18-84-78-135-61-52-139-43-81 9-127 57-45 45-59 123-14 74 12 152 24 77 81 113 56 37 133 29zm13-39q-78 5-123-26-48-31-66-94-21-64-11-125 5-31 16-56t30-45q35-39 101-45 64-6 117 37 50 42 63 110t-6 128-52 83q-15 11-32 20t-37 13z"/><path transform="translate(14 16.24) scale(.014 -.014)" d="m80 348q9 47 34 76 26 24 60 23 17-1 30.5-8.5t23.5-21.5q19-30 29-90 5 27 13 50t21 39q26 34 77 28 53-6 80-77 29-72 18-345 0-23-22-24-23 0-21 35 11 206-12 282-23 79-55 80-32 2-53-60-11-31-18.5-110t-9.5-206q-24-41-44 6-1 113-4 187t-9 110q-12 73-48 74-37 0-59-79-23-80-26-163-2-42-3-75.5t-1-57.5q-22-43-44-7l-2 453q2 34 23 34 21-1 21-26z"/><path transform="translate(21 16.24) scale(.014 -.014)" d="m272 479q58 2 104-36 48-37 69-108 22-70 4-152-18-84-78-135-61-52-139-43-81 9-127 57-45 45-59 123-14 74 12 152 24 77 81 113 56 37 133 29zm13-39q-78 5-123-26-48-31-66-94-21-64-11-125 5-31 16-56t30-45q35-39 101-45 64-6 117 37 50 42 63 110t-6 128-52 83q-15 11-32 20t-37 13z"/><path transform="translate(28 16.24) scale(.014 -.014)" d="m379 415q3 28 18 30 16 1 20-26 5-105 3-195t-11-167q-19-153-118-181-100-27-171 49-19 24-7 38t33-6q57-62 136-37t85 184q-31-29-68-40-40-11-85-5-49 6-90 47-42 43-52 116-10 71 22 137 31 66 84 87 54 23 104 16 52-8 97-47zm-21-65q-25 46-50 59-25 10-55 12-30 0-63-18-33-17-56-67-24-50-17-106 8-58 37-87 30-33 73-39 40-6 78 11 36 19 49 47 14 27 19 85 4 55-15 103z"/><path transform="translate(35 16.24) scale(.014 -.014)" d="m276 574q-35-24-70-1t-35 62 30 57q29 19 65 5 35-14 41-56 4-43-31-67zm-17-548q-7-33-31-31-25 2-20 31l-4 427q1 33 25 32 25-2 26-31z"/></svg>

<?xml version="1.0" encoding="utf-8" ?>
<svg baseProfile="tiny" height="100%" version="1.2" width="100%" xmlns="http://www.w3.org/2000/svg" xmlns:ev="http://www.w3.org/2001/xml-events" xmlns:xlink="http://www.w3.org/1999/xlink"><defs /><g><path d="M458 684Q398 504 265 288L266 41Q263 8 243 10Q224 10 224 41V292Q86 519 33 680Q25 710 47 719Q67 728 76 701Q123 550 242 351Q361 532 415 705Q426 732 447 726Q468 717 458 684Z" transform="translate(0.0, 72) scale(0.072, -0.072)" /><path d="M272 479Q330 481 376 443Q424 406 445 335Q467 265 449 183Q431 99 371 48Q310 -4 232 5Q151 14 105 62Q60 107 46 185Q32 259 58 337Q82 414 139 450Q195 487 272 479ZM285 440Q207 445 162 414Q114 383 96 320Q75 256 85 195Q90 164 101.0 139.0Q112 114 131 94Q166 55 232 49Q296 43 349 86Q399 128 412 196Q425 264 406 324Q387 384 354 407Q339 418 322.0 427.0Q305 436 285 440Z" transform="translate(36.0, 72) scale(0.072, -0.072)" /><path d="M80 348Q89 395 114 424Q140 448 174 447Q191 446 204.5 438.5Q218 431 228 417Q247 387 257 327Q262 354 270.0 377.0Q278 400 291 416Q317 450 368 444Q421 438 448 367Q477 295 466 22Q466 -1 444 -2Q421 -2 423 33Q434 239 411 315Q388 394 356 395Q324 397 303 335Q292 304 284.5 225.0Q277 146 275 19Q251 -22 231 25Q230 138 227.0 212.0Q224 286 218 322Q206 395 170 396Q133 396 111 317Q88 237 85 154Q83 112 82.0 78.5Q81 45 81 21Q59 -22 37 14L35 467Q37 501 58 501Q79 500 79 475Z" transform="translate(72.0, 72) scale(0.072, -0.072)" /><path d="M272 479Q330 481 376 443Q424 406 445 335Q467 265 449 183Q431 99 371 48Q310 -4 232 5Q151 14 105 62Q60 107 46 185Q32 259 58 337Q82 414 139 450Q195 487 272 479ZM285 440Q207 445 162 414Q114 383 96 320Q75 256 85 195Q90 164 101.0 139.0Q112 114 131 94Q166 55 232 49Q296 43 349 86Q399 128 412 196Q425 264 406 324Q387 384 354 407Q339 418 322.0 427.0Q305 436 285 440Z" transform="translate(108.0, 72) scale(0.072, -0.072)" /><path d="M379 415Q382 443 397 445Q413 446 417 419Q422 314 420.0 224.0Q418 134 409 57Q390 -96 291 -124Q191 -151 120 -75Q101 -51 113 -37Q125 -23 146 -43Q203 -105 282 -80Q361 -55 367 104Q336 75 299 64Q259 53 214 59Q165 65 124 106Q82 149 72 222Q62 293 94 359Q125 425 178 446Q232 469 282 462Q334 454 379 415ZM358 350Q333 396 308 409Q283 419 253 421Q223 421 190 403Q157 386 134 336Q110 286 117 230Q125 172 154 143Q184 110 227 104Q267 98 305 115Q341 134 354 162Q368 189 373 247Q377 302 358 350Z" transform="translate(144.0, 72) scale(0.072, -0.072)" /><path d="M276 574Q241 550 206 573Q171 596 171 635Q171 674 201 692Q230 711 266 697Q301 683 307 641Q311 598 276 574ZM259 26Q252 -7 228 -5Q203 -3 208 26L204 453Q205 486 229 485Q254 483 255 454Z" transform="translate(180.0, 72) scale(0.072, -0.072)" /></g></svg>
